T: Tipsy Sailor, The
M: 6/8
L: 1/8
K: Edor
|: D | E2 B BAB | EBB BAB | ded dcB | AFD DEF |
E2 B BAB | EBB BAB | AdB AFA | BGE E2 :|
|: g | eBe gfe | Bde gfe |fdA FAd |fdf agf |
[1 eBe gfe |Bde gfe | fdf gfg | bge e2 :|
[2 gba gfe | fag fed | AdB AFA | BGE E2 ||
